SVG_Azure_Grouped/Compute/Azure Compute Gallery.svg

<?xml version="1.0" encoding="UTF-8" standalone="no"?>
<!-- Generated by Microsoft Visio, SVG Export Azure Compute Gallery.svg Page-1 -->

<svg
   xmlns:dc="http://purl.org/dc/elements/1.1/"
   xmlns:cc="http://creativecommons.org/ns#"
   xmlns:rdf="http://www.w3.org/1999/02/22-rdf-syntax-ns#"
   xmlns:svg="http://www.w3.org/2000/svg"
   xmlns="http://www.w3.org/2000/svg"
   xmlns:sodipodi="http://sodipodi.sourceforge.net/DTD/sodipodi-0.dtd"
   xmlns:inkscape="http://www.inkscape.org/namespaces/inkscape"
   width="0.78735715in"
   height="0.78735685in"
   viewBox="0 0 56.689623 56.690004"
   xml:space="preserve"
   class="st6"
   version="1.1"
   id="svg55"
   sodipodi:docname="Azure Compute Gallery.svg"
   style="font-size:12px;overflow:visible;color-interpolation-filters:sRGB;fill:none;fill-rule:evenodd;stroke-linecap:square;stroke-miterlimit:3"
   inkscape:version="0.92.5 (2060ec1f9f, 2020-04-08)"><metadata
   id="metadata59"><rdf:RDF><cc:Work
       rdf:about=""><dc:format>image/svg+xml</dc:format><dc:type
         rdf:resource="http://purl.org/dc/dcmitype/StillImage" /></cc:Work></rdf:RDF></metadata><sodipodi:namedview
   pagecolor="#ffffff"
   bordercolor="#666666"
   borderopacity="1"
   objecttolerance="10"
   gridtolerance="10"
   guidetolerance="10"
   inkscape:pageopacity="0"
   inkscape:pageshadow="2"
   inkscape:window-width="640"
   inkscape:window-height="480"
   id="namedview57"
   showgrid="false"
   inkscape:zoom="1.4193119"
   inkscape:cx="37.795158"
   inkscape:cy="37.786193"
   inkscape:window-x="0"
   inkscape:window-y="0"
   inkscape:window-maximized="0"
   inkscape:current-layer="svg55" />
	<style
   type="text/css"
   id="style2">
	<![CDATA[
		.st1 {fill:#773adc;stroke:none;stroke-linecap:butt;stroke-width:34}
		.st2 {fill:url(#grad0-8);stroke:none;stroke-linecap:butt;stroke-width:34}
		.st3 {fill:#50e6ff;stroke:none;stroke-linecap:butt;stroke-width:34}
		.st4 {fill:#c3f1ff;stroke:none;stroke-linecap:butt;stroke-width:34}
		.st5 {fill:#9cebff;stroke:none;stroke-linecap:butt;stroke-width:34}
		.st6 {fill:none;fill-rule:evenodd;font-size:12px;overflow:visible;stroke-linecap:square;stroke-miterlimit:3}
	]]>
	</style>

	<defs
   id="Patterns_And_Gradients">
		<linearGradient
   id="grad0-8"
   x1="0"
   y1="78.804075"
   x2="45.329514"
   y2="78.804075"
   gradientTransform="scale(0.99537799,1.0046435)"
   gradientUnits="userSpaceOnUse">
			<stop
   offset="0"
   stop-color="#773adc"
   stop-opacity="1"
   id="stop4" />
			<stop
   offset="1"
   stop-color="#a67af4"
   stop-opacity="1"
   id="stop6" />
		</linearGradient>
	</defs>
	<g
   id="g53"
   transform="translate(-34.000419,-34.004298)">
		<title
   id="title10">Page-1</title>
		<g
   id="group11862-1"
   transform="translate(34,-34.0157)">
			<title
   id="title12">Azure Compute Gallery.11862</title>
			<g
   id="group11863-2">
				<title
   id="title14">Sheet.11863</title>
				<g
   id="shape11864-3">
					<title
   id="title16">Sheet.11864</title>
					<path
   d="m 24.74,75.97 h -1.91 a 1.35748,1.35748 0 0 1 -1.36,-1.34 v -5.26 a 1.35748,1.35748 0 0 1 1.36,-1.35 h 1.91 a 1.35433,1.35433 0 0 1 1.35,1.35 v 5.26 a 1.35433,1.35433 0 0 1 -1.35,1.34 z m 9.84,-1.34 v -5.26 a 1.35748,1.35748 -180 0 0 -1.36,-1.35 h -1.91 a 1.35748,1.35748 -180 0 0 -1.36,1.35 v 5.26 a 1.35748,1.35748 -180 0 0 1.36,1.36 h 1.91 a 1.35748,1.35748 -180 0 0 1.36,-1.36 z m -8.49,48.86 v -4.02 a 1.22205,1.22205 -180 0 0 -1.21,-1.22 h -2.2 a 1.22205,1.22205 -180 0 0 -1.22,1.22 v 4.02 a 1.22205,1.22205 -180 0 0 1.22,1.22 h 2.2 a 1.22205,1.22205 -180 0 0 1.21,-1.22 z m 8.49,0 v -4.02 a 1.22205,1.22205 -180 0 0 -1.22,-1.22 h -2.18 a 1.22205,1.22205 -180 0 0 -1.22,1.22 v 4.02 a 1.22205,1.22205 -180 0 0 1.22,1.22 h 2.18 a 1.22205,1.22205 -180 0 0 1.22,-1.22 z M 49.7,94.78 h 5.59 a 1.40157,1.40157 -180 0 0 1.4,-1.4 v -1.87 a 1.40157,1.40157 -180 0 0 -1.4,-1.4 h -5.6 a 1.40157,1.40157 -180 0 0 -1.4,1.4 v 1.87 a 1.40157,1.40157 -180 0 0 1.4,1.41 z m 0,8.56 h 5.59 a 1.40157,1.40157 -180 0 0 1.4,-1.4 v -1.87 a 1.39843,1.39843 -180 0 0 -1.4,-1.4 h -5.6 a 1.39843,1.39843 -180 0 0 -1.4,1.4 v 1.87 a 1.40157,1.40157 -180 0 0 1.4,1.4 z M 1.21,94.79 H 5.09 A 1.2126,1.2126 -180 0 0 6.3,93.57 V 91.32 A 1.2126,1.2126 -180 0 0 5.09,90.11 H 1.21 A 1.2126,1.2126 -180 0 0 0,91.32 v 2.25 a 1.2126,1.2126 -180 0 0 1.21,1.22 z m 0,8.56 H 5.09 A 1.2126,1.2126 -180 0 0 6.3,102.13 V 99.89 A 1.2126,1.2126 -180 0 0 5.09,98.67 H 1.21 A 1.2126,1.2126 -180 0 0 0,99.89 v 2.24 a 1.2126,1.2126 -180 0 0 1.21,1.21 z"
   class="st1"
   id="path18"
   inkscape:connector-curvature="0"
   style="fill:#773adc;stroke:none;stroke-width:34;stroke-linecap:butt" />
				</g>
				<g
   id="shape11865-5"
   transform="translate(5.46142,-5.2126)">
					<title
   id="title21">Sheet.11865</title>
					<path
   d="m 0,121.94 a 2.77172,2.77172 -180 0 0 2.77,2.77 h 39.58 a 2.77172,2.77172 -180 0 0 2.77,-2.77 v -40 A 2.77172,2.77172 -180 0 0 42.35,79.17 H 2.77 A 2.77172,2.77172 -180 0 0 0,81.94 Z"
   class="st2"
   id="path23"
   inkscape:connector-curvature="0"
   style="fill:url(#grad0-8);stroke:none;stroke-width:34;stroke-linecap:butt" />
				</g>
				<g
   id="shape11866-9"
   transform="translate(28.3591,-16.9701)">
					<title
   id="title26">Sheet.11866</title>
					<path
   d="m 9.74,107.66 v 11.35 L 0,124.71 v -11.38 z"
   class="st3"
   id="path28"
   inkscape:connector-curvature="0"
   style="fill:#50e6ff;stroke:none;stroke-width:34;stroke-linecap:butt" />
				</g>
				<g
   id="shape11867-11"
   transform="translate(18.5921,-28.3213)">
					<title
   id="title31">Sheet.11867</title>
					<path
   d="m 19.51,119.01 -9.74,5.7 -9.77,-5.7 9.77,-5.7 z"
   class="st4"
   id="path33"
   inkscape:connector-curvature="0"
   style="fill:#c3f1ff;stroke:none;stroke-width:34;stroke-linecap:butt" />
				</g>
				<g
   id="shape11868-13"
   transform="translate(18.5921,-16.9701)">
					<title
   id="title36">Sheet.11868</title>
					<path
   d="m 9.77,113.36 v 11.35 L 0,119.01 v -11.35 z"
   class="st5"
   id="path38"
   inkscape:connector-curvature="0"
   style="fill:#9cebff;stroke:none;stroke-width:34;stroke-linecap:butt" />
				</g>
				<g
   id="shape11869-15"
   transform="translate(18.5921,-16.9701)">
					<title
   id="title41">Sheet.11869</title>
					<path
   d="m 0,119.01 9.77,-5.68 v 11.38 z"
   class="st4"
   id="path43"
   inkscape:connector-curvature="0"
   style="fill:#c3f1ff;stroke:none;stroke-width:34;stroke-linecap:butt" />
				</g>
				<g
   id="shape11870-17"
   transform="translate(28.3591,-16.9701)">
					<title
   id="title46">Sheet.11870</title>
					<path
   d="M 9.74,119.01 0,113.33 v 11.38 z"
   class="st5"
   id="path48"
   inkscape:connector-curvature="0"
   style="fill:#9cebff;stroke:none;stroke-width:34;stroke-linecap:butt" />
				</g>
			</g>
		</g>
	</g>
</svg>

<?xml version="1.0" encoding="UTF-8" standalone="no"?>
<!DOCTYPE svg PUBLIC "-//W3C//DTD SVG 1.1//EN" "http://www.w3.org/Graphics/SVG/1.1/DTD/svg11.dtd">
<!-- Generated by Microsoft Visio, SVG Export Azure Compute Gallery.svg Page-1 -->
<svg xmlns="http://www.w3.org/2000/svg" xmlns:xlink="http://www.w3.org/1999/xlink" xmlns:ev="http://www.w3.org/2001/xml-events"
		width="1.73185in" height="1.73206in" viewBox="0 0 124.693 124.709" xml:space="preserve" color-interpolation-filters="sRGB"
		class="st6">
	<style type="text/css">
	<![CDATA[
		.st1 {fill:#773adc;stroke:none;stroke-linecap:butt;stroke-width:34}
		.st2 {fill:url(#grad0-8);stroke:none;stroke-linecap:butt;stroke-width:34}
		.st3 {fill:#50e6ff;stroke:none;stroke-linecap:butt;stroke-width:34}
		.st4 {fill:#c3f1ff;stroke:none;stroke-linecap:butt;stroke-width:34}
		.st5 {fill:#9cebff;stroke:none;stroke-linecap:butt;stroke-width:34}
		.st6 {fill:none;fill-rule:evenodd;font-size:12px;overflow:visible;stroke-linecap:square;stroke-miterlimit:3}
	]]>
	</style>

	<defs id="Patterns_And_Gradients">
		<linearGradient id="grad0-8" x1="0" y1="0" x2="1" y2="0" gradientTransform="rotate(-90 0.5 0.5)">
			<stop offset="0" stop-color="#773adc" stop-opacity="1"/>
			<stop offset="1" stop-color="#a67af4" stop-opacity="1"/>
		</linearGradient>
	</defs>
	<g>
		<title>Page-1</title>
		<g id="group11583-1" transform="translate(34,-34.0157)">
			<title>Azure Compute Gallery.11583</title>
			<g id="group11584-2">
				<title>Sheet.11584</title>
				<g id="shape11585-3">
					<title>Sheet.11585</title>
					<path d="M24.74 75.97 L22.83 75.97 A1.35748 1.35748 0 0 1 21.47 74.63 L21.47 69.37 A1.35748 1.35748 0 0 1 22.83
								 68.02 L24.74 68.02 A1.35433 1.35433 0 0 1 26.09 69.37 L26.09 74.63 A1.35433 1.35433 0 0 1 24.74
								 75.97 ZM34.58 74.63 L34.58 69.37 A1.35748 1.35748 -180 0 0 33.22 68.02 L31.31 68.02 A1.35748 1.35748
								 -180 0 0 29.95 69.37 L29.95 74.63 A1.35748 1.35748 -180 0 0 31.31 75.99 L33.22 75.99 A1.35748 1.35748
								 -180 0 0 34.58 74.63 ZM26.09 123.49 L26.09 119.47 A1.22205 1.22205 -180 0 0 24.88 118.25 L22.68
								 118.25 A1.22205 1.22205 -180 0 0 21.46 119.47 L21.46 123.49 A1.22205 1.22205 -180 0 0 22.68 124.71
								 L24.88 124.71 A1.22205 1.22205 -180 0 0 26.09 123.49 ZM34.58 123.49 L34.58 119.47 A1.22205 1.22205
								 -180 0 0 33.36 118.25 L31.18 118.25 A1.22205 1.22205 -180 0 0 29.96 119.47 L29.96 123.49 A1.22205
								 1.22205 -180 0 0 31.18 124.71 L33.36 124.71 A1.22205 1.22205 -180 0 0 34.58 123.49 ZM49.7 94.78
								 L55.29 94.78 A1.40157 1.40157 -180 0 0 56.69 93.38 L56.69 91.51 A1.40157 1.40157 -180 0 0 55.29
								 90.11 L49.69 90.11 A1.40157 1.40157 -180 0 0 48.29 91.51 L48.29 93.38 A1.40157 1.40157 -180 0 0
								 49.69 94.79 L49.7 94.78 ZM49.7 103.34 L55.29 103.34 A1.40157 1.40157 -180 0 0 56.69 101.94 L56.69
								 100.07 A1.39843 1.39843 -180 0 0 55.29 98.67 L49.69 98.67 A1.39843 1.39843 -180 0 0 48.29 100.07
								 L48.29 101.94 A1.40157 1.40157 -180 0 0 49.69 103.34 L49.7 103.34 ZM1.21 94.79 L5.09 94.79 A1.2126
								 1.2126 -180 0 0 6.3 93.57 L6.3 91.32 A1.2126 1.2126 -180 0 0 5.09 90.11 L1.21 90.11 A1.2126 1.2126
								 -180 0 0 0 91.32 L0 93.57 A1.2126 1.2126 -180 0 0 1.21 94.79 ZM1.21 103.35 L5.09 103.35 A1.2126
								 1.2126 -180 0 0 6.3 102.13 L6.3 99.89 A1.2126 1.2126 -180 0 0 5.09 98.67 L1.21 98.67 A1.2126 1.2126
								 -180 0 0 -0 99.89 L0 102.13 A1.2126 1.2126 -180 0 0 1.21 103.34 L1.21 103.35 Z" class="st1"/>
				</g>
				<g id="shape11586-5" transform="translate(5.46142,-5.2126)">
					<title>Sheet.11586</title>
					<path d="M0 121.94 A2.77172 2.77172 -180 0 0 2.77 124.71 L42.35 124.71 A2.77172 2.77172 -180 0 0 45.12 121.94
								 L45.12 81.94 A2.77172 2.77172 -180 0 0 42.35 79.17 L2.77 79.17 A2.77172 2.77172 -180 0 0 -0 81.94
								 L0 121.94 Z" class="st2"/>
				</g>
				<g id="shape11587-9" transform="translate(28.3591,-16.9701)">
					<title>Sheet.11587</title>
					<path d="M9.74 107.66 L9.74 119.01 L0 124.71 L0 113.33 L9.74 107.66 Z" class="st3"/>
				</g>
				<g id="shape11588-11" transform="translate(18.5921,-28.3213)">
					<title>Sheet.11588</title>
					<path d="M19.51 119.01 L9.77 124.71 L0 119.01 L9.77 113.31 L19.51 119.01 Z" class="st4"/>
				</g>
				<g id="shape11589-13" transform="translate(18.5921,-16.9701)">
					<title>Sheet.11589</title>
					<path d="M9.77 113.36 L9.77 124.71 L0 119.01 L0 107.66 L9.77 113.36 Z" class="st5"/>
				</g>
				<g id="shape11590-15" transform="translate(18.5921,-16.9701)">
					<title>Sheet.11590</title>
					<path d="M0 119.01 L9.77 113.33 L9.77 124.71 L0 119.01 Z" class="st4"/>
				</g>
				<g id="shape11591-17" transform="translate(28.3591,-16.9701)">
					<title>Sheet.11591</title>
					<path d="M9.74 119.01 L0 113.33 L0 124.71 L9.74 119.01 Z" class="st5"/>
				</g>
			</g>
		</g>
	</g>
</svg>
